src/icons/aws-secrets-manager.svg

<?xml version="1.0" encoding="UTF-8"?>
<svg xmlns="http://www.w3.org/2000/svg" xmlns:xlink="http://www.w3.org/1999/xlink" width="32" height="32" viewBox="0 0 32 32" version="1.1">
<defs>
<linearGradient id="linear0" gradientUnits="userSpaceOnUse" x1="0" y1="1" x2="1" y2="0" gradientTransform="matrix(32,0,0,32,0,0)">
<stop offset="0" style="stop-color:rgb(74.117649%,3.137255%,8.627451%);stop-opacity:1;"/>
<stop offset="1" style="stop-color:rgb(100%,32.156864%,32.156864%);stop-opacity:1;"/>
</linearGradient>
</defs>
<g id="surface1">
<rect x="0" y="0" width="32" height="32" style="fill:url(#linear0);stroke:none;"/>
<path style=" stroke:none;fill-rule:evenodd;fill:rgb(100%,100%,100%);fill-opacity:1;" d="M 15.621094 17.320312 C 15.621094 17.53125 15.789062 17.699219 16 17.699219 C 16.210938 17.699219 16.378906 17.53125 16.378906 17.320312 C 16.378906 17.109375 16.210938 16.941406 16 16.941406 C 15.789062 16.941406 15.621094 17.109375 15.621094 17.320312 Z M 14.621094 17.320312 C 14.621094 16.558594 15.238281 15.941406 16 15.941406 C 16.761719 15.941406 17.378906 16.558594 17.378906 17.320312 C 17.378906 17.902344 17.011719 18.402344 16.5 18.601562 L 16.5 20 L 15.5 20 L 15.5 18.601562 C 14.984375 18.402344 14.621094 17.902344 14.621094 17.320312 Z M 19.5 15.5 L 12.5 15.5 L 12.5 20.5 L 19.5 20.5 L 19.5 19.5 L 18.5 19.5 L 18.5 18.5 L 19.5 18.5 L 19.5 17.5 L 18.5 17.5 L 18.5 16.5 L 19.5 16.5 Z M 13.5 14.5 L 18.5 14.5 L 18.5 12.5 C 18.5 12.066406 18.210938 11.570312 17.726562 11.171875 C 17.222656 10.75 16.574219 10.5 16 10.5 C 14.808594 10.5 13.5 11.546875 13.5 12.5 Z M 19.5 12.5 L 19.5 14.5 L 20 14.5 C 20.277344 14.5 20.5 14.722656 20.5 15 L 20.5 21 C 20.5 21.277344 20.277344 21.5 20 21.5 L 12 21.5 C 11.722656 21.5 11.5 21.277344 11.5 21 L 11.5 15 C 11.5 14.722656 11.722656 14.5 12 14.5 L 12.5 14.5 L 12.5 12.5 C 12.5 10.984375 14.234375 9.5 16 9.5 C 16.8125 9.5 17.675781 9.828125 18.367188 10.402344 C 19.085938 10.996094 19.5 11.761719 19.5 12.5 Z M 7.746094 21.976562 L 8.554688 21.386719 C 7.515625 19.949219 6.929688 18.269531 6.839844 16.5 L 8 16.5 L 8 15.5 L 6.839844 15.5 C 6.933594 13.742188 7.519531 12.070312 8.554688 10.640625 L 7.746094 10.054688 C 6.585938 11.65625 5.9375 13.527344 5.839844 15.5 L 5 15.5 L 5 16.5 L 5.839844 16.5 C 5.929688 18.480469 6.578125 20.367188 7.746094 21.976562 Z M 21.375 23.460938 C 19.941406 24.496094 18.261719 25.082031 16.5 25.175781 L 16.5 24 L 15.5 24 L 15.5 25.175781 C 13.734375 25.082031 12.058594 24.496094 10.625 23.460938 L 10.039062 24.269531 C 11.644531 25.429688 13.523438 26.082031 15.5 26.175781 L 15.5 27 L 16.5 27 L 16.5 26.175781 C 18.476562 26.078125 20.355469 25.429688 21.960938 24.269531 Z M 10.625 8.570312 C 12.058594 7.53125 13.734375 6.949219 15.5 6.851562 L 15.5 8 L 16.5 8 L 16.5 6.851562 C 18.261719 6.949219 19.941406 7.53125 21.375 8.570312 L 21.960938 7.761719 C 20.355469 6.597656 18.476562 5.949219 16.5 5.851562 L 16.5 5 L 15.5 5 L 15.5 5.851562 C 13.523438 5.949219 11.644531 6.597656 10.039062 7.761719 Z M 26.160156 15.5 C 26.0625 13.527344 25.414062 11.65625 24.253906 10.054688 L 23.445312 10.640625 C 24.480469 12.070312 25.0625 13.742188 25.160156 15.5 L 24 15.5 L 24 16.5 L 25.160156 16.5 C 25.070312 18.269531 24.484375 19.949219 23.445312 21.386719 L 24.253906 21.976562 C 25.417969 20.367188 26.066406 18.480469 26.160156 16.5 L 27 16.5 L 27 15.5 Z M 22.511719 10.207031 L 25.59375 7.128906 L 24.886719 6.421875 L 21.804688 9.5 Z M 9.484375 21.820312 L 6.40625 24.902344 L 7.113281 25.609375 L 10.191406 22.527344 Z M 11.621094 10.917969 L 5.792969 5.085938 L 5.085938 5.792969 L 10.914062 11.625 Z M 21.652344 20.945312 L 26.914062 26.207031 L 26.207031 26.914062 L 20.945312 21.652344 Z M 21.652344 20.945312 "/>
</g>
</svg>

<svg role="img" viewBox="0 0 32 32" xmlns="http://www.w3.org/2000/svg" xmlns:xlink="http://www.w3.org/1999/xlink"><defs><linearGradient gradientTransform="scale(32)" gradientUnits="userSpaceOnUse" id="a" x1="0" x2="1" y1="1" y2="0"><stop offset="0" style="stop-color:rgb(74.117649%,3.137255%,8.627451%);stop-opacity:1"/><stop offset="1" style="stop-color:rgb(100%,32.156864%,32.156864%);stop-opacity:1"/></linearGradient></defs><path d="M0 0h32v32H0z" style="fill:url(#a);stroke:none"/><path d="M15.621 17.32a.378.378 0 1 0 .758 0 .377.377 0 0 0-.379-.379.377.377 0 0 0-.379.38m-1 0a1.379 1.379 0 1 1 2.758 0 1.38 1.38 0 0 1-.879 1.282V20h-1v-1.398c-.516-.2-.879-.7-.879-1.282M19.5 15.5h-7v5h7v-1h-1v-1h1v-1h-1v-1h1Zm-6-1h5v-2c0-.434-.29-.93-.773-1.328-.504-.422-1.153-.672-1.727-.672-1.191 0-2.5 1.047-2.5 2Zm6-2v2h.5c.277 0 .5.223.5.5v6c0 .277-.223.5-.5.5h-8a.498.498 0 0 1-.5-.5v-6c0-.277.223-.5.5-.5h.5v-2c0-1.516 1.734-3 3.5-3 .813 0 1.676.328 2.367.902.719.594 1.133 1.36 1.133 2.098M7.746 21.977l.809-.59A9.079 9.079 0 0 1 6.84 16.5H8v-1H6.84a9.065 9.065 0 0 1 1.715-4.86l-.809-.585A10.07 10.07 0 0 0 5.84 15.5H5v1h.84a10.05 10.05 0 0 0 1.906 5.477m13.629 1.484a9.116 9.116 0 0 1-4.875 1.715V24h-1v1.176a9.105 9.105 0 0 1-4.875-1.715l-.586.809a10.088 10.088 0 0 0 5.461 1.906V27h1v-.824a10.12 10.12 0 0 0 5.46-1.906ZM10.625 8.57A9.11 9.11 0 0 1 15.5 6.85V8h1V6.852a9.12 9.12 0 0 1 4.875 1.718l.586-.808a10.093 10.093 0 0 0-5.461-1.91V5h-1v.852a10.093 10.093 0 0 0-5.46 1.91ZM26.16 15.5a10.07 10.07 0 0 0-1.906-5.445l-.809.586A9.098 9.098 0 0 1 25.16 15.5H24v1h1.16a9.079 9.079 0 0 1-1.715 4.887l.809.59A10.107 10.107 0 0 0 26.16 16.5H27v-1Zm-3.648-5.293 3.082-3.078-.707-.707L21.805 9.5ZM9.484 21.82l-3.078 3.082.707.707 3.078-3.082Zm2.137-10.902L5.793 5.086l-.707.707 5.828 5.832Zm10.031 10.027 5.262 5.262-.707.707-5.262-5.262Zm0 0" style="stroke:none;fill-rule:evenodd;fill:rgb(100%,100%,100%);fill-opacity:1"/></svg>
